images/Chk1N125.svg

<?xml version="1.0" encoding="UTF-8"?>
<svg xmlns="http://www.w3.org/2000/svg" xmlns:xlink="http://www.w3.org/1999/xlink" width="300pt" height="300pt" viewBox="0 0 300 300" version="1.1">
<defs>
<g>
<symbol overflow="visible" id="glyph0-0">
<path style="stroke:none;" d="M 0.453125 1.59375 L 0.453125 -6.34375 L 4.953125 -6.34375 L 4.953125 1.59375 Z M 0.953125 1.09375 L 4.453125 1.09375 L 4.453125 -5.84375 L 0.953125 -5.84375 Z M 0.953125 1.09375 "/>
</symbol>
<symbol overflow="visible" id="glyph0-1">
<path style="stroke:none;" d="M 3.546875 -5.953125 C 2.898438 -5.953125 2.382812 -5.710938 2 -5.234375 C 1.625 -4.753906 1.4375 -4.101562 1.4375 -3.28125 C 1.4375 -2.445312 1.625 -1.789062 2 -1.3125 C 2.382812 -0.832031 2.898438 -0.59375 3.546875 -0.59375 C 4.191406 -0.59375 4.703125 -0.832031 5.078125 -1.3125 C 5.453125 -1.789062 5.640625 -2.445312 5.640625 -3.28125 C 5.640625 -4.101562 5.453125 -4.753906 5.078125 -5.234375 C 4.703125 -5.710938 4.191406 -5.953125 3.546875 -5.953125 Z M 3.546875 -6.6875 C 4.460938 -6.6875 5.195312 -6.375 5.75 -5.75 C 6.300781 -5.132812 6.578125 -4.3125 6.578125 -3.28125 C 6.578125 -2.238281 6.300781 -1.410156 5.75 -0.796875 C 5.195312 -0.179688 4.460938 0.125 3.546875 0.125 C 2.617188 0.125 1.878906 -0.179688 1.328125 -0.796875 C 0.773438 -1.410156 0.5 -2.238281 0.5 -3.28125 C 0.5 -4.3125 0.773438 -5.132812 1.328125 -5.75 C 1.878906 -6.375 2.617188 -6.6875 3.546875 -6.6875 Z M 3.546875 -6.6875 "/>
</symbol>
<symbol overflow="visible" id="glyph0-2">
<path style="stroke:none;" d="M 0.890625 -6.5625 L 2.078125 -6.5625 L 4.984375 -1.078125 L 4.984375 -6.5625 L 5.84375 -6.5625 L 5.84375 0 L 4.65625 0 L 1.75 -5.484375 L 1.75 0 L 0.890625 0 Z M 0.890625 -6.5625 "/>
</symbol>
<symbol overflow="visible" id="glyph0-3">
<path style="stroke:none;" d="M 0.890625 -6.5625 L 1.765625 -6.5625 L 1.765625 -3.875 L 5 -3.875 L 5 -6.5625 L 5.890625 -6.5625 L 5.890625 0 L 5 0 L 5 -3.125 L 1.765625 -3.125 L 1.765625 0 L 0.890625 0 Z M 0.890625 -6.5625 "/>
</symbol>
</g>
</defs>
<g id="surface77">
<rect x="0" y="0" width="300" height="300" style="fill:rgb(100%,100%,100%);fill-opacity:1;stroke:none;"/>
<path style="fill:none;stroke-width:1.2;stroke-linecap:butt;stroke-linejoin:miter;stroke:rgb(0%,0%,0%);stroke-opacity:1;stroke-miterlimit:10;" d="M 35.25 124.238281 L 41.628906 130.992188 "/>
<path style="fill:none;stroke-width:1.2;stroke-linecap:butt;stroke-linejoin:miter;stroke:rgb(100%,0%,0%);stroke-opacity:1;stroke-miterlimit:10;" d="M 41.628906 130.992188 L 48.007812 137.746094 "/>
<path style="fill:none;stroke-width:1.2;stroke-linecap:butt;stroke-linejoin:miter;stroke:rgb(100%,0%,0%);stroke-opacity:1;stroke-miterlimit:10;" d="M 48.007812 137.746094 L 57.046875 135.597656 "/>
<path style="fill:none;stroke-width:1.2;stroke-linecap:butt;stroke-linejoin:miter;stroke:rgb(0%,0%,0%);stroke-opacity:1;stroke-miterlimit:10;" d="M 57.046875 135.597656 L 66.085938 133.449219 "/>
<path style=" stroke:none;fill-rule:nonzero;fill:rgb(100%,100%,100%);fill-opacity:1;" d="M 44.007812 132.246094 L 52.007812 132.246094 L 52.007812 143.246094 L 44.007812 143.246094 Z M 44.007812 132.246094 "/>
<g style="fill:rgb(100%,0%,0%);fill-opacity:1;">
  <use xlink:href="#glyph0-1" x="44.007812" y="140.90918"/>
</g>
<path style="fill:none;stroke-width:1.2;stroke-linecap:butt;stroke-linejoin:miter;stroke:rgb(0%,0%,0%);stroke-opacity:1;stroke-miterlimit:10;" d="M 68.179688 134.074219 L 70.839844 125.175781 "/>
<path style="fill:none;stroke-width:1.2;stroke-linecap:butt;stroke-linejoin:miter;stroke:rgb(100%,0%,0%);stroke-opacity:1;stroke-miterlimit:10;" d="M 70.839844 125.175781 L 73.5 116.273438 "/>
<path style="fill:none;stroke-width:1.2;stroke-linecap:butt;stroke-linejoin:miter;stroke:rgb(0%,0%,0%);stroke-opacity:1;stroke-miterlimit:10;" d="M 63.992188 132.824219 L 66.648438 123.921875 "/>
<path style="fill:none;stroke-width:1.2;stroke-linecap:butt;stroke-linejoin:miter;stroke:rgb(100%,0%,0%);stroke-opacity:1;stroke-miterlimit:10;" d="M 66.648438 123.921875 L 69.308594 115.023438 "/>
<path style="fill:none;stroke-width:1.2;stroke-linecap:butt;stroke-linejoin:miter;stroke:rgb(0%,0%,0%);stroke-opacity:1;stroke-miterlimit:10;" d="M 66.085938 133.449219 L 78.84375 146.957031 "/>
<path style=" stroke:none;fill-rule:nonzero;fill:rgb(100%,100%,100%);fill-opacity:1;" d="M 67.402344 110.148438 L 75.402344 110.148438 L 75.402344 121.148438 L 67.402344 121.148438 Z M 67.402344 110.148438 "/>
<g style="fill:rgb(100%,0%,0%);fill-opacity:1;">
  <use xlink:href="#glyph0-1" x="67.402344" y="118.811523"/>
</g>
<path style="fill:none;stroke-width:1.2;stroke-linecap:butt;stroke-linejoin:miter;stroke:rgb(0%,0%,0%);stroke-opacity:1;stroke-miterlimit:10;" d="M 78.84375 146.957031 L 96.921875 142.664062 "/>
<path style="fill:none;stroke-width:1.2;stroke-linecap:butt;stroke-linejoin:miter;stroke:rgb(0%,0%,0%);stroke-opacity:1;stroke-miterlimit:10;" d="M 96.921875 142.664062 L 102.238281 124.859375 "/>
<path style="fill:none;stroke-width:1.2;stroke-linecap:butt;stroke-linejoin:miter;stroke:rgb(0%,0%,0%);stroke-opacity:1;stroke-miterlimit:10;" d="M 101.640625 142.132812 L 105.894531 127.890625 "/>
<path style="fill:none;stroke-width:1.2;stroke-linecap:butt;stroke-linejoin:miter;stroke:rgb(0%,0%,0%);stroke-opacity:1;stroke-miterlimit:10;" d="M 109.679688 156.171875 L 96.921875 142.664062 "/>
<path style="fill:none;stroke-width:1.2;stroke-linecap:butt;stroke-linejoin:miter;stroke:rgb(0%,0%,0%);stroke-opacity:1;stroke-miterlimit:10;" d="M 102.238281 124.859375 L 120.316406 120.566406 "/>
<path style="fill:none;stroke-width:1.2;stroke-linecap:butt;stroke-linejoin:miter;stroke:rgb(0%,0%,0%);stroke-opacity:1;stroke-miterlimit:10;" d="M 120.316406 120.566406 L 133.074219 134.074219 "/>
<path style="fill:none;stroke-width:1.2;stroke-linecap:butt;stroke-linejoin:miter;stroke:rgb(0%,0%,0%);stroke-opacity:1;stroke-miterlimit:10;" d="M 118.414062 124.917969 L 128.621094 135.722656 "/>
<path style="fill:none;stroke-width:1.2;stroke-linecap:butt;stroke-linejoin:miter;stroke:rgb(0%,0%,0%);stroke-opacity:1;stroke-miterlimit:10;" d="M 133.074219 134.074219 L 141.691406 130.601562 "/>
<path style="fill:none;stroke-width:1.2;stroke-linecap:butt;stroke-linejoin:miter;stroke:rgb(0%,0%,100%);stroke-opacity:1;stroke-miterlimit:10;" d="M 141.691406 130.601562 L 150.308594 127.132812 "/>
<path style="fill:none;stroke-width:1.2;stroke-linecap:butt;stroke-linejoin:miter;stroke:rgb(0%,0%,0%);stroke-opacity:1;stroke-miterlimit:10;" d="M 127.753906 151.875 L 133.074219 134.074219 "/>
<path style="fill:none;stroke-width:1.2;stroke-linecap:butt;stroke-linejoin:miter;stroke:rgb(0%,0%,100%);stroke-opacity:1;stroke-miterlimit:10;" d="M 150.308594 127.132812 L 158.394531 131.703125 "/>
<path style="fill:none;stroke-width:1.2;stroke-linecap:butt;stroke-linejoin:miter;stroke:rgb(0%,0%,0%);stroke-opacity:1;stroke-miterlimit:10;" d="M 158.394531 131.703125 L 166.480469 136.277344 "/>
<path style=" stroke:none;fill-rule:nonzero;fill:rgb(100%,100%,100%);fill-opacity:1;" d="M 143.308594 121.632812 L 157.308594 121.632812 L 157.308594 132.632812 L 143.308594 132.632812 Z M 143.308594 121.632812 "/>
<g style="fill:rgb(0%,0%,100%);fill-opacity:1;">
  <use xlink:href="#glyph0-2" x="143.308594" y="130.295898"/>
  <use xlink:href="#glyph0-3" x="150.286133" y="130.295898"/>
</g>
<path style="fill:none;stroke-width:1.2;stroke-linecap:butt;stroke-linejoin:miter;stroke:rgb(0%,0%,0%);stroke-opacity:1;stroke-miterlimit:10;" d="M 166.480469 136.277344 L 180.90625 124.566406 "/>
<path style="fill:none;stroke-width:1.2;stroke-linecap:butt;stroke-linejoin:miter;stroke:rgb(0%,0%,0%);stroke-opacity:1;stroke-miterlimit:10;" d="M 170.679688 138.5 L 182.21875 129.128906 "/>
<path style="fill:none;stroke-width:1.2;stroke-linecap:butt;stroke-linejoin:miter;stroke:rgb(0%,0%,0%);stroke-opacity:1;stroke-miterlimit:10;" d="M 169.414062 154.625 L 166.480469 136.277344 "/>
<path style="fill:none;stroke-width:1.2;stroke-linecap:butt;stroke-linejoin:miter;stroke:rgb(0%,0%,0%);stroke-opacity:1;stroke-miterlimit:10;" d="M 180.90625 124.566406 L 198.261719 131.199219 "/>
<path style="fill:none;stroke-width:1.2;stroke-linecap:butt;stroke-linejoin:miter;stroke:rgb(0%,0%,0%);stroke-opacity:1;stroke-miterlimit:10;" d="M 198.261719 131.199219 L 205.472656 125.34375 "/>
<path style="fill:none;stroke-width:1.2;stroke-linecap:butt;stroke-linejoin:miter;stroke:rgb(0%,0%,100%);stroke-opacity:1;stroke-miterlimit:10;" d="M 205.472656 125.34375 L 212.683594 119.488281 "/>
<path style="fill:none;stroke-width:1.2;stroke-linecap:butt;stroke-linejoin:miter;stroke:rgb(0%,0%,0%);stroke-opacity:1;stroke-miterlimit:10;" d="M 198.261719 131.199219 L 201.191406 149.546875 "/>
<path style="fill:none;stroke-width:1.2;stroke-linecap:butt;stroke-linejoin:miter;stroke:rgb(0%,0%,0%);stroke-opacity:1;stroke-miterlimit:10;" d="M 194.238281 133.722656 L 196.582031 148.402344 "/>
<path style="fill:none;stroke-width:1.2;stroke-linecap:butt;stroke-linejoin:miter;stroke:rgb(0%,0%,100%);stroke-opacity:1;stroke-miterlimit:10;" d="M 212.683594 119.488281 L 221.363281 122.804688 "/>
<path style="fill:none;stroke-width:1.2;stroke-linecap:butt;stroke-linejoin:miter;stroke:rgb(0%,0%,0%);stroke-opacity:1;stroke-miterlimit:10;" d="M 221.363281 122.804688 L 230.039062 126.121094 "/>
<path style=" stroke:none;fill-rule:nonzero;fill:rgb(100%,100%,100%);fill-opacity:1;" d="M 205.683594 113.988281 L 219.683594 113.988281 L 219.683594 124.988281 L 205.683594 124.988281 Z M 205.683594 113.988281 "/>
<g style="fill:rgb(0%,0%,100%);fill-opacity:1;">
  <use xlink:href="#glyph0-2" x="205.683594" y="122.651367"/>
  <use xlink:href="#glyph0-3" x="212.661133" y="122.651367"/>
</g>
<path style="fill:none;stroke-width:1.2;stroke-linecap:butt;stroke-linejoin:miter;stroke:rgb(0%,0%,0%);stroke-opacity:1;stroke-miterlimit:10;" d="M 230.039062 126.121094 L 232.972656 144.46875 "/>
<path style="fill:none;stroke-width:1.2;stroke-linecap:butt;stroke-linejoin:miter;stroke:rgb(0%,0%,0%);stroke-opacity:1;stroke-miterlimit:10;" d="M 234.648438 127.265625 L 236.996094 141.945312 "/>
<path style="fill:none;stroke-width:1.2;stroke-linecap:butt;stroke-linejoin:miter;stroke:rgb(0%,0%,0%);stroke-opacity:1;stroke-miterlimit:10;" d="M 244.460938 114.40625 L 230.039062 126.121094 "/>
<path style="fill:none;stroke-width:1.2;stroke-linecap:butt;stroke-linejoin:miter;stroke:rgb(0%,0%,0%);stroke-opacity:1;stroke-miterlimit:10;" d="M 232.972656 144.46875 L 250.328125 151.101562 "/>
<path style="fill:none;stroke-width:1.2;stroke-linecap:butt;stroke-linejoin:miter;stroke:rgb(0%,0%,0%);stroke-opacity:1;stroke-miterlimit:10;" d="M 250.328125 151.101562 L 257.539062 145.246094 "/>
<path style="fill:none;stroke-width:1.2;stroke-linecap:butt;stroke-linejoin:miter;stroke:rgb(0%,0%,100%);stroke-opacity:1;stroke-miterlimit:10;" d="M 257.539062 145.246094 L 264.75 139.390625 "/>
<path style="fill:none;stroke-width:1.2;stroke-linecap:butt;stroke-linejoin:miter;stroke:rgb(0%,0%,0%);stroke-opacity:1;stroke-miterlimit:10;" d="M 249.011719 146.539062 L 254.78125 141.851562 "/>
<path style="fill:none;stroke-width:1.2;stroke-linecap:butt;stroke-linejoin:miter;stroke:rgb(0%,0%,100%);stroke-opacity:1;stroke-miterlimit:10;" d="M 254.78125 141.851562 L 260.550781 137.167969 "/>
<path style="fill:none;stroke-width:1.2;stroke-linecap:butt;stroke-linejoin:miter;stroke:rgb(0%,0%,100%);stroke-opacity:1;stroke-miterlimit:10;" d="M 264.75 139.390625 L 263.285156 130.214844 "/>
<path style="fill:none;stroke-width:1.2;stroke-linecap:butt;stroke-linejoin:miter;stroke:rgb(0%,0%,0%);stroke-opacity:1;stroke-miterlimit:10;" d="M 263.285156 130.214844 L 261.816406 121.042969 "/>
<path style=" stroke:none;fill-rule:nonzero;fill:rgb(100%,100%,100%);fill-opacity:1;" d="M 261.75 133.890625 L 268.75 133.890625 L 268.75 144.890625 L 261.75 144.890625 Z M 261.75 133.890625 "/>
<g style="fill:rgb(0%,0%,100%);fill-opacity:1;">
  <use xlink:href="#glyph0-2" x="261.75" y="142.553711"/>
</g>
<path style="fill:none;stroke-width:1.2;stroke-linecap:butt;stroke-linejoin:miter;stroke:rgb(0%,0%,0%);stroke-opacity:1;stroke-miterlimit:10;" d="M 261.816406 121.042969 L 244.460938 114.40625 "/>
<path style="fill:none;stroke-width:1.2;stroke-linecap:butt;stroke-linejoin:miter;stroke:rgb(0%,0%,0%);stroke-opacity:1;stroke-miterlimit:10;" d="M 258.519531 124.460938 L 244.636719 119.15625 "/>
<path style="fill:none;stroke-width:1.2;stroke-linecap:butt;stroke-linejoin:miter;stroke:rgb(0%,0%,0%);stroke-opacity:1;stroke-miterlimit:10;" d="M 201.191406 149.546875 L 186.769531 161.261719 "/>
<path style="fill:none;stroke-width:1.2;stroke-linecap:butt;stroke-linejoin:miter;stroke:rgb(0%,0%,0%);stroke-opacity:1;stroke-miterlimit:10;" d="M 186.769531 161.261719 L 169.414062 154.625 "/>
<path style="fill:none;stroke-width:1.2;stroke-linecap:butt;stroke-linejoin:miter;stroke:rgb(0%,0%,0%);stroke-opacity:1;stroke-miterlimit:10;" d="M 186.59375 156.511719 L 172.710938 151.207031 "/>
<path style="fill:none;stroke-width:1.2;stroke-linecap:butt;stroke-linejoin:miter;stroke:rgb(0%,0%,0%);stroke-opacity:1;stroke-miterlimit:10;" d="M 169.414062 154.625 L 156.898438 168.355469 "/>
<path style="fill:none;stroke-width:1.2;stroke-linecap:butt;stroke-linejoin:miter;stroke:rgb(0%,0%,0%);stroke-opacity:1;stroke-miterlimit:10;" d="M 154.871094 169.175781 L 158.339844 177.792969 "/>
<path style="fill:none;stroke-width:1.2;stroke-linecap:butt;stroke-linejoin:miter;stroke:rgb(100%,0%,0%);stroke-opacity:1;stroke-miterlimit:10;" d="M 158.339844 177.792969 L 161.8125 186.410156 "/>
<path style="fill:none;stroke-width:1.2;stroke-linecap:butt;stroke-linejoin:miter;stroke:rgb(0%,0%,0%);stroke-opacity:1;stroke-miterlimit:10;" d="M 158.925781 167.539062 L 162.394531 176.160156 "/>
<path style="fill:none;stroke-width:1.2;stroke-linecap:butt;stroke-linejoin:miter;stroke:rgb(100%,0%,0%);stroke-opacity:1;stroke-miterlimit:10;" d="M 162.394531 176.160156 L 165.867188 184.777344 "/>
<path style="fill:none;stroke-width:1.2;stroke-linecap:butt;stroke-linejoin:miter;stroke:rgb(0%,0%,0%);stroke-opacity:1;stroke-miterlimit:10;" d="M 156.898438 168.355469 L 147.628906 167.746094 "/>
<path style="fill:none;stroke-width:1.2;stroke-linecap:butt;stroke-linejoin:miter;stroke:rgb(0%,0%,100%);stroke-opacity:1;stroke-miterlimit:10;" d="M 147.628906 167.746094 L 138.359375 167.132812 "/>
<path style=" stroke:none;fill-rule:nonzero;fill:rgb(100%,100%,100%);fill-opacity:1;" d="M 159.839844 180.09375 L 167.839844 180.09375 L 167.839844 191.09375 L 159.839844 191.09375 Z M 159.839844 180.09375 "/>
<g style="fill:rgb(100%,0%,0%);fill-opacity:1;">
  <use xlink:href="#glyph0-1" x="159.839844" y="188.756836"/>
</g>
<path style="fill:none;stroke-width:1.2;stroke-linecap:butt;stroke-linejoin:miter;stroke:rgb(0%,0%,100%);stroke-opacity:1;stroke-miterlimit:10;" d="M 138.359375 167.132812 L 133.054688 159.503906 "/>
<path style="fill:none;stroke-width:1.2;stroke-linecap:butt;stroke-linejoin:miter;stroke:rgb(0%,0%,0%);stroke-opacity:1;stroke-miterlimit:10;" d="M 133.054688 159.503906 L 127.753906 151.875 "/>
<path style=" stroke:none;fill-rule:nonzero;fill:rgb(100%,100%,100%);fill-opacity:1;" d="M 131.359375 161.632812 L 145.359375 161.632812 L 145.359375 172.632812 L 131.359375 172.632812 Z M 131.359375 161.632812 "/>
<g style="fill:rgb(0%,0%,100%);fill-opacity:1;">
  <use xlink:href="#glyph0-2" x="131.359375" y="170.295898"/>
  <use xlink:href="#glyph0-3" x="138.336914" y="170.295898"/>
</g>
<path style="fill:none;stroke-width:1.2;stroke-linecap:butt;stroke-linejoin:miter;stroke:rgb(0%,0%,0%);stroke-opacity:1;stroke-miterlimit:10;" d="M 127.753906 151.875 L 109.679688 156.171875 "/>
<path style="fill:none;stroke-width:1.2;stroke-linecap:butt;stroke-linejoin:miter;stroke:rgb(0%,0%,0%);stroke-opacity:1;stroke-miterlimit:10;" d="M 124.9375 148.050781 L 110.476562 151.488281 "/>
</g>
</svg>

<svg xmlns="http://www.w3.org/2000/svg" xmlns:xlink="http://www.w3.org/1999/xlink" width="300pt" height="300pt" viewBox="0 0 300 300"><defs><symbol overflow="visible"><path d="M.453 1.594v-7.938h4.5v7.938zm.5-.5h3.5v-6.938h-3.5zm0 0"/></symbol><symbol overflow="visible" id="a"><path d="M3.547-5.953c-.65 0-1.164.242-1.547.72-.375.48-.563 1.13-.563 1.952 0 .835.188 1.49.563 1.967.383.48.898.72 1.547.72.644 0 1.156-.24 1.53-.72.376-.476.564-1.132.564-1.968 0-.822-.187-1.474-.562-1.954-.375-.477-.887-.72-1.53-.72zm0-.734c.914 0 1.648.312 2.203.937.55.617.828 1.438.828 2.47 0 1.042-.277 1.87-.828 2.483-.555.617-1.29.922-2.203.922-.93 0-1.668-.305-2.22-.922C.774-1.41.5-2.237.5-3.28c0-1.033.273-1.853.828-2.47.55-.625 1.29-.938 2.22-.938zm0 0"/></symbol><symbol overflow="visible" id="b"><path d="M.89-6.563H2.08l2.906 5.485v-5.484h.86V0H4.656L1.75-5.484V0H.89zm0 0"/></symbol><symbol overflow="visible" id="c"><path d="M.89-6.563h.876v2.688H5v-2.688h.89V0H5v-3.125H1.766V0H.89zm0 0"/></symbol></defs><g><path fill="#fff" d="M0 0h300v300H0z"/><path d="M35.25 124.238l6.38 6.754" stroke-width="1.2" stroke="#000" stroke-miterlimit="10" fill="none"/><path d="M41.63 130.992l6.378 6.754M48.008 137.746l9.04-2.148" stroke-width="1.2" stroke="#f00" stroke-miterlimit="10" fill="none"/><path d="M57.047 135.598l9.04-2.15" stroke-width="1.2" stroke="#000" stroke-miterlimit="10" fill="none"/><path d="M44.008 132.246h8v11h-8zm0 0" fill="#fff"/><use xlink:href="#a" x="44.008" y="140.909" fill="#f00"/><path d="M68.18 134.074l2.66-8.898" stroke-width="1.2" stroke="#000" stroke-miterlimit="10" fill="none"/><path d="M70.84 125.176l2.66-8.903" stroke-width="1.2" stroke="#f00" stroke-miterlimit="10" fill="none"/><path d="M63.992 132.824l2.656-8.902" stroke-width="1.2" stroke="#000" stroke-miterlimit="10" fill="none"/><path d="M66.648 123.922l2.66-8.9" stroke-width="1.2" stroke="#f00" stroke-miterlimit="10" fill="none"/><path d="M66.086 133.45l12.758 13.507" stroke-width="1.2" stroke="#000" stroke-miterlimit="10" fill="none"/><path d="M67.402 110.148h8v11h-8zm0 0" fill="#fff"/><use xlink:href="#a" x="67.402" y="118.812" fill="#f00"/><path d="M78.844 146.957l18.078-4.293M96.922 142.664l5.316-17.805M101.64 142.133l4.255-14.242M109.68 156.172l-12.758-13.508M102.238 124.86l18.078-4.294M120.316 120.566l12.758 13.508M118.414 124.918l10.207 10.805M133.074 134.074l8.617-3.472" stroke-width="1.2" stroke="#000" stroke-miterlimit="10" fill="none"/><path d="M141.69 130.602l8.62-3.47" stroke-width="1.2" stroke="#00f" stroke-miterlimit="10" fill="none"/><path d="M127.754 151.875l5.32-17.8" stroke-width="1.2" stroke="#000" stroke-miterlimit="10" fill="none"/><path d="M150.31 127.133l8.085 4.57" stroke-width="1.2" stroke="#00f" stroke-miterlimit="10" fill="none"/><path d="M158.395 131.703l8.085 4.574" stroke-width="1.2" stroke="#000" stroke-miterlimit="10" fill="none"/><path d="M143.31 121.633h14v11h-14zm0 0" fill="#fff"/><g fill="#00f"><use xlink:href="#b" x="143.309" y="130.296"/><use xlink:href="#c" x="150.286" y="130.296"/></g><path d="M166.48 136.277l14.426-11.71M170.68 138.5l11.54-9.37M169.414 154.625l-2.934-18.348M180.906 124.566l17.356 6.633M198.262 131.2l7.21-5.856" stroke-width="1.2" stroke="#000" stroke-miterlimit="10" fill="none"/><path d="M205.473 125.344l7.21-5.856" stroke-width="1.2" stroke="#00f" stroke-miterlimit="10" fill="none"/><path d="M198.262 131.2l2.93 18.347M194.238 133.723l2.344 14.68" stroke-width="1.2" stroke="#000" stroke-miterlimit="10" fill="none"/><path d="M212.684 119.488l8.68 3.317" stroke-width="1.2" stroke="#00f" stroke-miterlimit="10" fill="none"/><path d="M221.363 122.805l8.676 3.316" stroke-width="1.2" stroke="#000" stroke-miterlimit="10" fill="none"/><path d="M205.684 113.988h14v11h-14zm0 0" fill="#fff"/><g fill="#00f"><use xlink:href="#b" x="205.684" y="122.651"/><use xlink:href="#c" x="212.661" y="122.651"/></g><path d="M230.04 126.12l2.933 18.35M234.648 127.266l2.348 14.68M244.46 114.406l-14.42 11.715M232.973 144.47l17.355 6.632M250.328 151.102l7.21-5.856" stroke-width="1.2" stroke="#000" stroke-miterlimit="10" fill="none"/><path d="M257.54 145.246l7.21-5.855" stroke-width="1.2" stroke="#00f" stroke-miterlimit="10" fill="none"/><path d="M249.012 146.54l5.77-4.688" stroke-width="1.2" stroke="#000" stroke-miterlimit="10" fill="none"/><path d="M254.78 141.852l5.77-4.684M264.75 139.39l-1.465-9.175" stroke-width="1.2" stroke="#00f" stroke-miterlimit="10" fill="none"/><path d="M263.285 130.215l-1.47-9.172" stroke-width="1.2" stroke="#000" stroke-miterlimit="10" fill="none"/><path d="M261.75 133.89h7v11h-7zm0 0" fill="#fff"/><use xlink:href="#b" x="261.75" y="142.554" fill="#00f"/><path d="M261.816 121.043l-17.355-6.637M258.52 124.46l-13.883-5.304M201.19 149.547l-14.42 11.715M186.77 161.262l-17.356-6.637M186.594 156.512l-13.883-5.305M169.414 154.625l-12.516 13.73M154.87 169.176l3.47 8.617" stroke-width="1.2" stroke="#000" stroke-miterlimit="10" fill="none"/><path d="M158.34 177.793l3.472 8.617" stroke-width="1.2" stroke="#f00" stroke-miterlimit="10" fill="none"/><path d="M158.926 167.54l3.47 8.62" stroke-width="1.2" stroke="#000" stroke-miterlimit="10" fill="none"/><path d="M162.395 176.16l3.472 8.617" stroke-width="1.2" stroke="#f00" stroke-miterlimit="10" fill="none"/><path d="M156.898 168.355l-9.27-.61" stroke-width="1.2" stroke="#000" stroke-miterlimit="10" fill="none"/><path d="M147.63 167.746l-9.27-.613" stroke-width="1.2" stroke="#00f" stroke-miterlimit="10" fill="none"/><path d="M159.84 180.094h8v11h-8zm0 0" fill="#fff"/><use xlink:href="#a" x="159.84" y="188.757" fill="#f00"/><path d="M138.36 167.133l-5.305-7.63" stroke-width="1.2" stroke="#00f" stroke-miterlimit="10" fill="none"/><path d="M133.055 159.504l-5.3-7.63" stroke-width="1.2" stroke="#000" stroke-miterlimit="10" fill="none"/><path d="M131.36 161.633h14v11h-14zm0 0" fill="#fff"/><g fill="#00f"><use xlink:href="#b" x="131.359" y="170.296"/><use xlink:href="#c" x="138.337" y="170.296"/></g><path d="M127.754 151.875l-18.074 4.297M124.938 148.05l-14.46 3.438" stroke-width="1.2" stroke="#000" stroke-miterlimit="10" fill="none"/></g></svg>
